assets/icons/checklist.svg

<svg width="30" height="30" viewBox="0 0 30 30" fill="none" xmlns="http://www.w3.org/2000/svg">
<path d="M26.25 1.875C26.7473 1.875 27.2242 2.07254 27.5758 2.42417C27.9275 2.77581 28.125 3.25272 28.125 3.75V26.25C28.125 26.7473 27.9275 27.2242 27.5758 27.5758C27.2242 27.9275 26.7473 28.125 26.25 28.125H3.75C3.25272 28.125 2.77581 27.9275 2.42417 27.5758C2.07254 27.2242 1.875 26.7473 1.875 26.25V3.75C1.875 3.25272 2.07254 2.77581 2.42417 2.42417C2.77581 2.07254 3.25272 1.875 3.75 1.875H26.25ZM3.75 0C2.75544 0 1.80161 0.395088 1.09835 1.09835C0.395088 1.80161 0 2.75544 0 3.75L0 26.25C0 27.2446 0.395088 28.1984 1.09835 28.9016C1.80161 29.6049 2.75544 30 3.75 30H26.25C27.2446 30 28.1984 29.6049 28.9016 28.9016C29.6049 28.1984 30 27.2446 30 26.25V3.75C30 2.75544 29.6049 1.80161 28.9016 1.09835C28.1984 0.395088 27.2446 0 26.25 0L3.75 0Z" fill="#B791F5"/>
<path d="M20.569 9.31875C20.8314 9.05863 21.1856 8.91224 21.5551 8.91122C21.9246 8.9102 22.2796 9.05464 22.5435 9.3133C22.8073 9.57196 22.9587 9.92407 22.965 10.2935C22.9713 10.6629 22.832 11.02 22.5771 11.2875L15.0921 20.6437C14.9635 20.7823 14.8082 20.8935 14.6356 20.9707C14.463 21.0479 14.2766 21.0895 14.0876 21.093C13.8985 21.0965 13.7107 21.0618 13.5354 20.9911C13.3601 20.9203 13.2008 20.8149 13.0671 20.6812L8.10773 15.72C7.96957 15.5913 7.85876 15.436 7.7819 15.2635C7.70504 15.091 7.66371 14.9048 7.66038 14.716C7.65704 14.5272 7.69178 14.3396 7.7625 14.1645C7.83323 13.9894 7.9385 13.8303 8.07204 13.6968C8.20557 13.5633 8.36464 13.458 8.53974 13.3873C8.71484 13.3165 8.9024 13.2818 9.09121 13.2851C9.28003 13.2885 9.46625 13.3298 9.63874 13.4067C9.81124 13.4835 9.96649 13.5943 10.0952 13.7325L14.0215 17.6569L20.5334 9.36C20.545 9.34547 20.5575 9.33169 20.5709 9.31875H20.569Z" fill="#B791F5"/>
</svg>

<svg width="30" height="30" viewBox="0 0 30 30" fill="none" xmlns="http://www.w3.org/2000/svg"><path d="M26.25 1.875a1.875 1.875 0 011.875 1.875v22.5a1.875 1.875 0 01-1.875 1.875H3.75a1.875 1.875 0 01-1.875-1.875V3.75A1.875 1.875 0 013.75 1.875h22.5zM3.75 0A3.75 3.75 0 000 3.75v22.5A3.75 3.75 0 003.75 30h22.5A3.75 3.75 0 0030 26.25V3.75A3.75 3.75 0 0026.25 0H3.75z" fill="#B791F5"/><path d="M20.569 9.319a1.406 1.406 0 012.008 1.968l-7.485 9.357a1.406 1.406 0 01-2.025.037l-4.96-4.961a1.406 1.406 0 111.988-1.988l3.926 3.925 6.512-8.297a.432.432 0 01.038-.041h-.002z" fill="#B791F5"/></svg>
